Papirus/48x48/apps/piwigo.svg

<svg width="48" height="48" version="1.1" xmlns="http://www.w3.org/2000/svg">
 <path d="m23 10-2 3h-15c-1.108 0-2 0.892-2 2v21c0 1.108 0.892 2 2 2h36c1.108 0 2-0.892 2-2v-21c0-1.108-0.892-2-2-2h-3l-2-3z" style="opacity:.2"/>
 <path d="m23 9-2 3h-15c-1.108 0-2 0.892-2 2v21c0 1.108 0.892 2 2 2h36c1.108 0 2-0.892 2-2v-21c0-1.108-0.892-2-2-2h-3l-2-3z" style="fill:#ff6c3a"/>
 <path d="m23 9-2 3h-15c-1.108 0-2 0.892-2 2v1c0-1.108 0.892-2 2-2h15l2-3h14l2 3h3c1.108 0 2 0.892 2 2v-1c0-1.108-0.892-2-2-2h-3l-2-3h-14z" style="fill:#ffffff;opacity:.2"/>
 <rect x="24" y="12" width="12" height="3" style="opacity:.2"/>
 <rect x="24" y="11" width="12" height="3" style="fill:#ffffff"/>
 <ellipse cx="16.493271" cy="25.506729" rx="9.4932718" ry="9.4932709" style="opacity:.2"/>
 <ellipse cx="16.493271" cy="24.506729" rx="9.4932718" ry="9.4932709" style="fill:#ffffff"/>
 <circle cx="16.5" cy="25.5" r="6.5" style="opacity:.2"/>
 <circle cx="16.5" cy="24.5" r="6.5" style="fill:#4f4f4f"/>
</svg>

<svg xmlns="http://www.w3.org/2000/svg" width="48" height="48" version="1.1">
 <path style="opacity:0.2" d="M 23,10 21,13 H 6 C 4.892,13 4,13.892 4,15 V 36 C 4,37.108 4.892,38 6,38 H 42 C 43.108,38 44,37.108 44,36 V 15 C 44,13.892 43.108,13 42,13 H 39 L 37,10 Z"/>
 <path style="fill:#ff6c3a" d="M 23,9 21,12 H 6 C 4.892,12 4,12.892 4,14 V 35 C 4,36.108 4.892,37 6,37 H 42 C 43.108,37 44,36.108 44,35 V 14 C 44,12.892 43.108,12 42,12 H 39 L 37,9 Z"/>
 <circle style="opacity:0.2" cx="16.5" cy="25.5" r="9.5"/>
 <circle style="fill:#ffffff" cx="16.5" cy="24.5" r="9.5"/>
 <path style="opacity:0.2;fill:#ffffff" d="M 23,9 21,12 H 6 C 4.892,12 4,12.892 4,14 V 15 C 4,13.892 4.892,13 6,13 H 21 L 23,10 H 37 L 39,13 H 42 C 43.108,13 44,13.892 44,15 V 14 C 44,12.892 43.108,12 42,12 H 39 L 37,9 Z"/>
 <rect style="opacity:0.2" width="12" height="3" x="24" y="12"/>
 <rect style="fill:#ffffff" width="12" height="3" x="24" y="11"/>
 <circle style="opacity:0.2" cx="16.5" cy="25.5" r="6.5"/>
 <circle style="fill:#4f4f4f" cx="16.5" cy="24.5" r="6.5"/>
</svg>
